X:1054
T:Ringdans efter Thorsjö
T:(SvL Sm. 207)
O:Östra Torås, Småland
S:Efter Hjalmar Thorsjö
B:Svenska Låtar Småland
R:Ringdans
M:2/4
L:1/8
Z:Jonas Brunskog
W:Lilla blomman hon är vacker, när hon i sin fägring står
W:när den kalla hösten kommer blomman dör och vissnar å.
W:Tänk på detta, du min vän, du som liknar blomman än.
K:D
|:d>d d>A|A>A B>G|G>G A>A|c>c d2:|
|:d>c d>e|f>f e2| e>c A>A|B>c d2:|
(:musicend:)

(:music:)
